X: 1
T:Jolly Seven, The
R:reel
Z:id:hn-reel-559
M:C|
K:Ador
cAeA cAeA|cAeA BAGB|1 cBAB cdef|gfge dBGB:|2 cBAG ABcd|e=fed cAAB||
|:c2ec gcec|c2ec dBGB|1 c2ec gcef|gfge dBGB:|2 cBAG ABcd|e=fed cAAB||
"variations"
|:cAeA cAeA|cAeA dBGB|1 cAeA cdef|gfgd BAGB:|2 cBAG ABcd|eged cBAB||
|:c2ec gcec|c2ec BAGB|1 c2ec gcec|gfgd BAGB:|2 cBAG ABcd|eged cAAB||
